en/_assets/wiki/svg/wysiwyg/block.svg

<svg xmlns="http://www.w3.org/2000/svg" xmlns:xlink="http://www.w3.org/1999/xlink" width="16" height="16" class="yc-icon" fill="currentColor" stroke="none" aria-hidden="true"><path d="M3.65 3.3C3.6223 3.3 3.59611 3.3031 3.57148 3.3087C3.48462 3.32844 3.39787 3.32979 3.31531 3.31531C3.32979 3.39787 3.32844 3.48462 3.3087 3.57148C3.3031 3.59611 3.3 3.6223 3.3 3.65V4.22143C3.3 4.58041 3.00899 4.87143 2.65 4.87143C2.29102 4.87143 2 4.58041 2 4.22143V3.15C2 2.51487 2.51487 2 3.15 2H4.22143C4.58042 2 4.87143 2.29101 4.87143 2.65C4.87143 3.00899 4.58042 3.3 4.22143 3.3H3.65Z" fill="currentColor"></path><path d="M6.42857 2.65C6.42857 2.29101 6.71959 2 7.07857 2H8.22143C8.58042 2 8.87143 2.29101 8.87143 2.65C8.87143 3.00899 8.58042 3.3 8.22143 3.3H7.07857C6.71959 3.3 6.42857 3.00899 6.42857 2.65Z" fill="currentColor"></path><path d="M10.4286 2.65C10.4286 2.29101 10.7196 2 11.0786 2H12.15C12.7851 2 13.3 2.51487 13.3 3.15V4.22143C13.3 4.58041 13.009 4.87143 12.65 4.87143C12.291 4.87143 12 4.58041 12 4.22143V3.65C12 3.6223 11.9969 3.59611 11.9913 3.57148C11.9716 3.48462 11.9702 3.39787 11.9847 3.31531C11.9021 3.32979 11.8154 3.32844 11.7285 3.3087C11.7039 3.3031 11.6777 3.3 11.65 3.3H11.0786C10.7196 3.3 10.4286 3.00899 10.4286 2.65Z" fill="currentColor"></path><path d="M2.65 6.42857C3.00899 6.42857 3.3 6.71959 3.3 7.07857V8.22143C3.3 8.58041 3.00899 8.87143 2.65 8.87143C2.29102 8.87143 2 8.58041 2 8.22143V7.07857C2 6.71959 2.29102 6.42857 2.65 6.42857Z" fill="currentColor"></path><path d="M12.65 6.42857C13.009 6.42857 13.3 6.71959 13.3 7.07857V8.22143C13.3 8.58041 13.009 8.87143 12.65 8.87143C12.291 8.87143 12 8.58041 12 8.22143V7.07857C12 6.71959 12.291 6.42857 12.65 6.42857Z" fill="currentColor"></path><path d="M12.65 10.4286C13.009 10.4286 13.3 10.7196 13.3 11.0786V12.15C13.3 12.7851 12.7851 13.3 12.15 13.3H11.0786C10.7196 13.3 10.4286 13.009 10.4286 12.65C10.4286 12.291 10.7196 12 11.0786 12H11.65C11.6777 12 11.7039 11.9969 11.7285 11.9913C11.8154 11.9716 11.9021 11.9702 11.9847 11.9847C11.9702 11.9021 11.9716 11.8154 11.9913 11.7285C11.9969 11.7039 12 11.6777 12 11.65V11.0786C12 10.7196 12.291 10.4286 12.65 10.4286Z" fill="currentColor"></path><path d="M2.65 10.4286C3.00899 10.4286 3.3 10.7196 3.3 11.0786V11.65C3.3 11.6777 3.3031 11.7039 3.3087 11.7285C3.32845 11.8154 3.32979 11.9021 3.31531 11.9847C3.39787 11.9702 3.48462 11.9716 3.57148 11.9913C3.59611 11.9969 3.6223 12 3.65 12H4.22143C4.58042 12 4.87143 12.291 4.87143 12.65C4.87143 13.009 4.58042 13.3 4.22143 13.3H3.15C2.51487 13.3 2 12.7851 2 12.15V11.0786C2 10.7196 2.29102 10.4286 2.65 10.4286Z" fill="currentColor"></path><path d="M6.42857 12.65C6.42857 12.291 6.71959 12 7.07857 12H8.22143C8.58042 12 8.87143 12.291 8.87143 12.65C8.87143 13.009 8.58042 13.3 8.22143 13.3H7.07857C6.71959 13.3 6.42857 13.009 6.42857 12.65Z" fill="currentColor"></path><path d="M5.1 4.70001C5.04477 4.70001 5 4.74478 5 4.80001V5.90001C5 5.95524 5.04477 6.00001 5.1 6.00001H10.4C10.4552 6.00001 10.5 5.95524 10.5 5.90001V4.80001C10.5 4.74478 10.4552 4.70001 10.4 4.70001H5.1Z" fill="currentColor"></path><path d="M5 7.10002C5 7.04479 5.04477 7.00002 5.1 7.00002H10.4C10.4552 7.00002 10.5 7.04479 10.5 7.10002V8.20002C10.5 8.25525 10.4552 8.30002 10.4 8.30002H5.1C5.04477 8.30002 5 8.25525 5 8.20002V7.10002Z" fill="currentColor"></path><path d="M5.1 9.30002C5.04477 9.30002 5 9.34479 5 9.40002V10.5C5 10.5552 5.04477 10.6 5.1 10.6H10.4C10.4552 10.6 10.5 10.5552 10.5 10.5V9.40002C10.5 9.34479 10.4552 9.30002 10.4 9.30002H5.1Z" fill="currentColor"></path></svg>

<svg xmlns="http://www.w3.org/2000/svg" width="16" height="16" fill="currentColor" aria-hidden="true" class="yc-icon"><path d="M3.65 3.3a.353.353 0 0 0-.079.009.648.648 0 0 1-.256.006.648.648 0 0 1-.006.256.353.353 0 0 0-.009.079v.571a.65.65 0 0 1-1.3 0V3.15C2 2.515 2.515 2 3.15 2h1.071a.65.65 0 1 1 0 1.3H3.65ZM6.429 2.65a.65.65 0 0 1 .65-.65H8.22a.65.65 0 1 1 0 1.3H7.08a.65.65 0 0 1-.65-.65ZM10.429 2.65a.65.65 0 0 1 .65-.65h1.071c.635 0 1.15.515 1.15 1.15v1.071a.65.65 0 1 1-1.3 0V3.65a.353.353 0 0 0-.009-.079.649.649 0 0 1-.006-.256.648.648 0 0 1-.256-.006.353.353 0 0 0-.079-.009h-.571a.65.65 0 0 1-.65-.65ZM2.65 6.429a.65.65 0 0 1 .65.65V8.22a.65.65 0 0 1-1.3 0V7.08a.65.65 0 0 1 .65-.65ZM12.65 6.429a.65.65 0 0 1 .65.65V8.22a.65.65 0 1 1-1.3 0V7.08a.65.65 0 0 1 .65-.65ZM12.65 10.429a.65.65 0 0 1 .65.65v1.071a1.15 1.15 0 0 1-1.15 1.15h-1.071a.65.65 0 1 1 0-1.3h.571a.353.353 0 0 0 .079-.009.649.649 0 0 1 .256-.006.649.649 0 0 1 .006-.256.353.353 0 0 0 .009-.079v-.571a.65.65 0 0 1 .65-.65ZM2.65 10.429a.65.65 0 0 1 .65.65v.571c0 .028.003.054.009.079.02.086.02.173.006.256a.649.649 0 0 1 .256.006c.025.006.051.009.079.009h.571a.65.65 0 1 1 0 1.3H3.15A1.15 1.15 0 0 1 2 12.15v-1.071a.65.65 0 0 1 .65-.65ZM6.429 12.65a.65.65 0 0 1 .65-.65H8.22a.65.65 0 1 1 0 1.3H7.08a.65.65 0 0 1-.65-.65ZM5.1 4.7a.1.1 0 0 0-.1.1v1.1a.1.1 0 0 0 .1.1h5.3a.1.1 0 0 0 .1-.1V4.8a.1.1 0 0 0-.1-.1H5.1ZM5 7.1a.1.1 0 0 1 .1-.1h5.3a.1.1 0 0 1 .1.1v1.1a.1.1 0 0 1-.1.1H5.1a.1.1 0 0 1-.1-.1V7.1ZM5.1 9.3a.1.1 0 0 0-.1.1v1.1a.1.1 0 0 0 .1.1h5.3a.1.1 0 0 0 .1-.1V9.4a.1.1 0 0 0-.1-.1H5.1Z"/></svg>
